X:1
T:Title
%%score 1 { ( 2 5 ) | ( 3 4 ) }
L:1/8
Q:1/4=100
M:6/8
K:D
V:1 treble nm="Church Organ"
V:2 treble nm="Grand Piano"
V:5 treble 
V:3 bass 
V:4 bass 
V:1
 F2 F F2 F | FDE F3 | A2 A A2 A | A=FG A3 | =c2 c c2 A | A2 A A2 A | AGF F2 E | D3 z3 | A2 A A2 A | %9
w: Maltbie~Babcock * * *|||||||||
 B>AB c3 | d>cB A2 B | G2 F E3 | A2 A D2 D | G2 G F2 F | F2 E- EAG | F3 E3 | D6 | F2 F F2 F | %18
w: |||||||||
 FDE F3 | A2 A A2 A | A=FG A3 | =c2 c c2 A | A2 A A2 A | AGF F2 E | D3 z3 | A2 A A2 A | B>AB c3 | %27
w: |||||||||
 d>cB A2 B | G2 F E3 | A2 A D2 D | G2 G F2 F | F2 E- EAG | F3 E3 | D6 |] %34
w: |||||||
V:2
 [F,DF]2 [F,DF] [F,DF]2 [F,DF] | [F,DF]2 [F,DF] [F,DF]2 [F,DF] | [A,FA]2 [A,FA] [A,FA]2 [A,FA] | %3
 [A,=FA]2 [A,FA] [A,FA]3 | [D=F=c]2 [EGc] [Ac]2 [FA] | [B,DA]2 [CEA] [FA]2 [CDFA] | %6
 [FA]G[B,DF] [A,CF]2[K:bass] [G,CE] | [F,A,D]2[K:treble] [FA] [FA]2 [FA] | A-[DA][EA] [FA]2 [FA] | %9
 [B,GB]2 [B,GB] c2- [Ec] | d>cB A2 B | G2 F E3 | A2 A D2 D | G2 G F2 [F,^A,CF] | %14
 [F,B,F]2 [G,B,E] [CEA][DG][A,DF] | [A,B,F]3[K:bass] [G,CE]3 | [F,A,D]2[K:treble] [DF] [DF]2 [DF] | %17
 [F,DF]2 [F,DF] [F,DF]2 [F,DF] | [F,DF]2 [F,DF] [F,DF]2 [F,DF] | [A,FA]2 [A,FA] [A,FA]2 [A,FA] | %20
 [A,=FA]2 [A,FA] [A,FA]3 | [D=F=c]2 [EGc] [Ac]2 [FA] | [B,DA]2 [CEA] [FA]2 [CDFA] | %23
 .[FA]3 z3[K:bass] | [F,A,D]2[K:treble] [FA] [FA]2 [FA] | .A3 z3 | z3 c3 | d>cB A2 B | G2 F E3 | %29
 A2 A D2 D | G2 G F2 [F,^A,CF] | [F,B,F]2 [G,B,E] [CEA][DG][A,DF] | [A,B,F]3[K:bass] [G,CE]3 | %33
 [D,F,A,D]6 |] %34
V:3
 B,,2 B,, ^A,,2 A,, | A,,2 A,, ^G,,2 G,, | A,,2 B,, =C,2 ^C, | D,2 C, =C,3 | z3 .[=A,=F]3 | %5
 [A,,G,]2 [A,,G,] [D,A,D]2 [F,,D,] | z EG,, A,,2 A,, | D,2 D D2 D | z F,[D,G,] [A,,A,]2 [A,,A,] | %9
 z z/ A/E, A,2 G, | [D,F,D]2 [E,G,D] [F,A,D]2 [G,A,D] | [E,A,C]2 [F,A,C] [G,A,C]3 | %12
 [F,=CE]2 [F,CE] [G,B,]2 [G,B,] | [E,B,D]2 [E,B,D] [F,^A,C]2 F,, | G,,2 G,, z B,E,, | A,,3 A,,3 | %16
 z2 F, F,2 F, | B,,2 B,, ^A,,2 A,, | A,,2 A,, ^G,,2 G,, | A,,2 B,, =C,2 ^C, | D,2 C, =C,3 | %21
 [=C,^A,]2 [C,A,] [=A,=F]2 =C | [A,,G,]2 [A,,G,] [D,A,D]2 [F,,D,] | z EG,, A,,2 A,, | D,2 D D2 D | %25
 z F,[D,G,] [A,,A,]2 [A,,A,] | z z/ A/E, A,2 G, | [D,F,D]2 [E,G,D] [F,A,D]2 [G,A,D] | %28
 [E,A,C]2 [F,A,C] [G,A,C]3 | [F,=CE]2 [F,CE] [G,B,]2 [G,B,] | [E,B,D]2 [E,B,D] [F,^A,C]2 F,, | %31
 G,,2 G,, z B,E,, | A,,3 A,,3 | D,,6 |] %34
V:4
 x6 | x6 | x6 | x6 | [=C,^A,]2 [C,A,] =F,2- [F,=C] | x6 | .[G,,D,]3 z3 | x6 | .D,3 z3 | .E,3 A,,3 | %10
 x6 | x6 | x6 | x6 | z3 .E,,3 | x6 | D,6 | x6 | x6 | x6 | x6 | z3 =F,3 | x6 | .[G,,D,]3 z3 | x6 | %25
 .D,3 z3 | .E,3 A,,3 | x6 | x6 | x6 | x6 | z3 .E,,3 | x6 | x6 |] %34
V:5
 x6 | x6 | x6 | x6 | x6 | x6 | .B,3 z3[K:bass] | x2[K:treble] x4 | .[A,F]3 z3 | z3 .F3 | x6 | x6 | %12
 x6 | x6 | x6 | x3[K:bass] x3 | x2[K:treble] x4 | x6 | x6 | x6 | x6 | x6 | x6 | %23
 B,-[B,G][B,DF] [A,CF]2[K:bass] [G,CE] | x2[K:treble] x4 | [A,F]D[EA] [FA]2 [FA] | %26
 [B,GB]2 [B,GB] F2 E | x6 | x6 | x6 | x6 | x6 | x3[K:bass] x3 | x6 |] %34

